X: 41754
T: Van Diemens Land
R: reel
M: 4/4
K: Dminor
A2|G2 A2 D2 E2|F2 G2 c2 BA|G3 F D2 C2|D6 DE|F2 G2 A2 cA|
d4 d2 c2|A2 c2 A2 G2|A6 DE|F2 G2 A2 cA|d4 c2 A2|c2 c2 A2 G2|
A6 A2|G2 A2 D2 E2|F2 G2 c2 BA|G3 F D2 C2|D6||

